; generated by PrusaSlicer 2.4.1+win64 on 2022-04-04 at 14:17:36 UTC

; 

; external perimeters extrusion width = 0.45mm
; perimeters extrusion width = 0.45mm
; infill extrusion width = 0.45mm
; solid infill extrusion width = 0.45mm
; top infill extrusion width = 0.45mm
; first layer extrusion width = 0.42mm

M73 P0 R60
M201 X9000 Y9000 Z500 E10000 ; sets maximum accelerations, mm/sec^2
M203 X500 Y500 Z12 E120 ; sets maximum feedrates, mm / sec
M204 P2000 R1500 T2000 ; sets acceleration (P, T) and retract acceleration (R), mm/sec^2
M205 X10.00 Y10.00 Z0.20 E2.50 ; sets the jerk limits, mm/sec
M205 S0 T0 ; sets the minimum extruding and travel feed rate, mm/sec
M107
;TYPE:Custom
M862.3 P "MK2S" ; printer model check
M862.1 P0.4 ; nozzle diameter check
M115 U3.2.3 ; tell printer latest fw version
G90 ; use absolute coordinates
M83 ; extruder relative mode
M204 S2000 T1500 ; MK2 firmware only supports the old M204 format
M104 S215 ; set extruder temp
M140 S60 ; set bed temp
M190 S60 ; wait for bed temp
M109 S215 ; wait for extruder temp
G28 W ; home all without mesh bed level
G80 ; mesh bed leveling
G1 Z0.2 F720
G1 Y-2 F1000 ; go outside print area
G92 E0
G1 X60 E9 F1000 ; intro line
G1 X100 E12.5 F1000 ; intro line
G92 E0
G21 ; set units to millimeters
G90 ; use absolute coordinates
M83 ; use relative distances for extrusion
M900 K0.05 ; Filament gcode LA 1.5
M900 K30 ; Filament gcode LA 1.0
M107
;LAYER_CHANGE
;Z:0.2
;HEIGHT:0.2
;BEFORE_LAYER_CHANGE
G92 E0.0
;0.2


G1 E-.8 F2100
G1 Z.4 F720
;AFTER_LAYER_CHANGE
;0.2
G1 X115.232 Y96.061 F10800
G1 Z.2 F720
G1 E.8 F2100
M204 S800
;TYPE:Skirt/Brim
;WIDTH:0.42
G1 F900
G1 X116.591 Y95.461 E.04659
G1 X117.575 Y95.334 E.0311
G1 X132.423 Y95.305 E.46554
G1 X133.177 Y95.396 E.02382
G1 X133.613 Y95.503 E.01409
G1 X134.995 Y96.249 E.04923
G1 X135.738 Y97.299 E.04036
G1 X136.095 Y98.297 E.03321
G1 X136.23 Y99.086 E.02511
G1 X136.189 Y99.974 E.02787
G1 X135.885 Y101.569 E.05091
G1 X135.744 Y102.123 E.01794
G1 X134.963 Y103.486 E.04923
G1 X134.25 Y104.032 E.02816
G1 X131.729 Y105.44 E.09053
G1 X130.994 Y105.735 E.02484
G1 X129.861 Y105.926 E.03603
G1 X119.656 Y105.893 E.31999
G1 X118.315 Y105.49 E.0439
G1 X115.732 Y104.019 E.09319
G1 X114.606 Y102.924 E.04923
G1 X114.261 Y102.123 E.02735
G1 X113.816 Y99.974 E.06882
G1 X113.793 Y98.892 E.03394
G1 X114.023 Y97.917 E.03141
G1 X114.267 Y97.299 E.0208
G1 X115.195 Y96.108 E.04735
M204 S1000
G1 X115.498 Y96.353 F10800
M204 S800
G1 F900
G1 X115.536 Y96.305 E.00193
G1 X116.657 Y95.832 E.03814
G1 X117.576 Y95.711 E.02904
G1 X132.423 Y95.682 E.46554
G1 X133.087 Y95.762 E.02095
G1 X133.523 Y95.869 E.01409
G1 X134.806 Y96.59 E.04612
G1 X135.509 Y97.718 E.04169
G1 X135.734 Y98.405 E.02266
G1 X135.855 Y99.122 E.02282
G1 X135.819 Y99.903 E.02451
G1 X135.515 Y101.498 E.05091
G1 X135.38 Y102.024 E.01701
G1 X134.066 Y103.702 E.06683
G1 X131.546 Y105.11 E.09053
G1 X130.899 Y105.371 E.02185
G1 X129.861 Y105.549 E.03301
G1 X119.681 Y105.517 E.31921
G1 X118.501 Y105.162 E.03862
G1 X115.919 Y103.691 E.09319
G1 X114.625 Y102.024 E.06617
G1 X114.186 Y99.903 E.0679
G1 X114.169 Y98.928 E.03058
G1 X114.385 Y98.025 E.02912
G1 X114.613 Y97.449 E.0194
G1 X115.46 Y96.399 E.0423
M204 S1000
G1 X115.758 Y96.65 F10800
M204 S800
G1 F900
G1 X115.837 Y96.555 E.00388
G1 X116.723 Y96.204 E.02989
G1 X117.576 Y96.088 E.02699
G1 X132.424 Y96.059 E.46554
G1 X132.997 Y96.128 E.01808
G1 X133.433 Y96.236 E.01409
G1 X134.609 Y96.928 E.04278
G1 X135.163 Y97.868 E.03421
G1 X135.373 Y98.513 E.02126
G1 X135.48 Y99.159 E.02053
G1 X135.449 Y99.833 E.02116
G1 X135.102 Y101.608 E.05673
G1 X135.016 Y101.924 E.01027
G1 X133.882 Y103.373 E.05768
G1 X131.362 Y104.781 E.09053
G1 X130.804 Y105.006 E.01886
G1 X129.862 Y105.172 E.02999
G1 X119.706 Y105.141 E.31843
G1 X118.688 Y104.834 E.03333
G1 X116.105 Y103.363 E.09319
G1 X114.989 Y101.924 E.05711
G1 X114.556 Y99.833 E.06697
G1 X114.544 Y98.964 E.02723
G1 X114.746 Y98.132 E.02684
G1 X114.959 Y97.599 E.018
G1 X115.719 Y96.696 E.03702
M204 S1000
; printing object Sizzling Lahdi-Elzing.stl id:0 copy 0
;WIPE_START
G1 F8640
G1 X115.837 Y96.555 E-.04244
G1 X116.723 Y96.204 E-.22012
G1 X117.576 Y96.088 E-.19874
G1 X118.87 Y96.086 E-.29869
;WIPE_END
G1 E-.04 F2100
G1 Z.6 F720
G1 X123.833 Y101.882 F10800
G1 Z.2 F720
G1 E.8 F2100
M204 S800
;TYPE:External perimeter
G1 F900
G1 X125.002 Y101.789 E.03677
G1 X126.789 Y101.895 E.05612
G1 X126.885 Y101.926 E.00317
G1 X126.122 Y101.882 E.02397
G1 X125.35 Y101.876 E.0242
G1 X125.09 Y101.853 E.00819
G1 X123.893 Y101.88 E.03753
M204 S1000
G1 X124.233 Y101.86 F10800
; stop printing object Sizzling Lahdi-Elzing.stl id:0 copy 0
M106 S84.15
;LAYER_CHANGE
;Z:0.35
;HEIGHT:0.15
;BEFORE_LAYER_CHANGE
G92 E0.0
;0.35


;WIPE_START
G1 F8640
G1 X125.002 Y101.789 E-.25698
G1 X126.789 Y101.895 E-.41326
G1 X126.885 Y101.926 E-.02335
G1 X126.598 Y101.91 E-.06642
;WIPE_END
G1 E-.04 F2100
G1 Z.6 F720
;AFTER_LAYER_CHANGE
;0.35
G1 X126.585 Y105.915 F10800
G1 Z.35 F720
G1 E.8 F2100
;TYPE:Skirt/Brim
G1 F900
G1 X119.656 Y105.893 E.16759
G1 X118.315 Y105.49 E.03387
G1 X115.732 Y104.019 E.07188
G1 X114.606 Y102.924 E.03797
G1 X114.261 Y102.123 E.0211
G1 X113.816 Y99.974 E.05308
G1 X113.793 Y98.892 E.02618
G1 X114.023 Y97.917 E.02423
G1 X114.267 Y97.299 E.01605
G1 X115.232 Y96.061 E.03797
G1 X116.591 Y95.461 E.03594
G1 X117.575 Y95.334 E.02399
G1 X132.423 Y95.305 E.35909
G1 X133.177 Y95.396 E.01837
G1 X133.613 Y95.503 E.01087
G1 X134.995 Y96.249 E.03797
G1 X135.738 Y97.299 E.03113
G1 X136.095 Y98.297 E.02562
G1 X136.23 Y99.086 E.01937
G1 X136.189 Y99.974 E.0215
G1 X135.885 Y101.569 E.03927
G1 X135.744 Y102.123 E.01383
G1 X134.963 Y103.486 E.03797
G1 X134.25 Y104.032 E.02172
G1 X131.729 Y105.44 E.06983
G1 X130.994 Y105.735 E.01916
G1 X129.861 Y105.926 E.02779
G1 X126.645 Y105.916 E.07778
G1 X126.646 Y105.539 F10800
G1 F900
G1 X119.681 Y105.517 E.16847
G1 X118.501 Y105.162 E.02979
G1 X115.919 Y103.691 E.07188
G1 X114.625 Y102.024 E.05104
G1 X114.186 Y99.903 E.05237
G1 X114.169 Y98.928 E.02359
G1 X114.385 Y98.025 E.02246
G1 X114.613 Y97.449 E.01497
G1 X115.536 Y96.305 E.03557
G1 X116.657 Y95.832 E.02942
G1 X117.576 Y95.711 E.0224
G1 X132.423 Y95.682 E.35909
G1 X133.087 Y95.762 E.01616
G1 X133.523 Y95.869 E.01087
G1 X134.806 Y96.59 E.03557
G1 X135.509 Y97.718 E.03216
G1 X135.734 Y98.405 E.01747
G1 X135.855 Y99.122 E.0176
G1 X135.819 Y99.903 E.01891
G1 X135.515 Y101.498 E.03927
G1 X135.38 Y102.024 E.01312
G1 X134.066 Y103.702 E.05155
G1 X131.546 Y105.11 E.06983
G1 X130.899 Y105.371 E.01686
G1 X129.861 Y105.549 E.02546
G1 X126.706 Y105.539 E.0763
G1 X126.708 Y105.162 F10800
G1 F900
G1 X119.706 Y105.141 E.16934
G1 X118.688 Y104.834 E.02571
G1 X116.105 Y103.363 E.07188
G1 X114.989 Y101.924 E.04405
G1 X114.556 Y99.833 E.05166
G1 X114.544 Y98.964 E.021
G1 X114.746 Y98.132 E.0207
G1 X114.959 Y97.599 E.01389
G1 X115.837 Y96.555 E.033
G1 X116.723 Y96.204 E.02306
G1 X117.576 Y96.088 E.02082
G1 X132.424 Y96.059 E.35909
G1 X132.997 Y96.128 E.01395
G1 X133.433 Y96.236 E.01087
G1 X134.609 Y96.928 E.033
G1 X135.163 Y97.868 E.02638
G1 X135.373 Y98.513 E.0164
G1 X135.48 Y99.159 E.01584
G1 X135.449 Y99.833 E.01632
G1 X135.102 Y101.608 E.04376
G1 X135.016 Y101.924 E.00792
G1 X133.882 Y103.373 E.04449
G1 X131.362 Y104.781 E.06983
G1 X130.804 Y105.006 E.01455
G1 X129.862 Y105.172 E.02313
G1 X126.768 Y105.162 E.07483
; printing object Sizzling Lahdi-Elzing.stl id:0 copy 0
;WIPE_START
G1 F8640
G1 X123.476 Y105.152 E-.76
;WIPE_END
G1 E-.04 F2100
G1 Z.75 F720
G1 X126.979 Y102.006 F10800
G1 Z.35 F720
G1 E.8 F2100
M204 S800
;TYPE:External perimeter
;WIDTH:0.45
G1 F900
G1 X126.021 Y101.942 E.02502
G1 X125.582 Y101.939 E.01145
G1 X125.396 Y101.899 E.00493
G1 X125.002 Y101.889 E.01028
G1 X124.53 Y101.904 E.0123
G1 X124.415 Y101.938 E.00313
G1 X123.981 Y101.938 E.01131
G1 X123.329 Y102.018 E.01711
G1 X122.957 Y102.03 E.00971
G1 X122.598 Y102.177 E.0101
G1 X122.367 Y102.235 E.00619
G1 X121.905 Y102.286 E.01212
;TYPE:Overhang perimeter
G1 F1500
G1 X120.643 Y102.382 E.03298
G1 X121.043 Y102.232 E.01115
G1 X121.923 Y102.112 E.02314
;TYPE:External perimeter
G1 F900
G1 X122.335 Y102.106 E.01074
G1 X122.703 Y102.014 E.00988
G1 X122.829 Y101.891 E.00459
G1 X123.052 Y101.803 E.00625
G1 X124.217 Y101.72 E.03044
G1 X125.787 Y101.72 E.04091
G1 X126.96 Y101.811 E.03065
G1 X127.175 Y101.891 E.00599
G1 X127.233 Y101.938 E.00195
G1 X127.446 Y102.033 E.00609
G1 X128.705 Y102.198 E.03307
;TYPE:Overhang perimeter
G1 F1500
G1 X128.962 Y102.232 E.00676
G1 X129.338 Y102.375 E.0105
G1 X129.255 Y102.387 E.00219
G1 X128.682 Y102.336 E.01498
;TYPE:External perimeter
G1 F900
G1 X128.296 Y102.301 E.0101
G1 X127.452 Y102.181 E.02223
G1 X127.035 Y102.028 E.01157
M204 S1000
G1 X126.821 Y101.639 F10800
; stop printing object Sizzling Lahdi-Elzing.stl id:0 copy 0
M106 S170.85
;LAYER_CHANGE
;Z:0.5
;HEIGHT:0.15
;BEFORE_LAYER_CHANGE
G92 E0.0
;0.5


;WIPE_START
G1 F8640
G1 X126.021 Y101.942 E-.23495
G1 X125.582 Y101.939 E-.10146
G1 X125.396 Y101.899 E-.04372
G1 X125.002 Y101.889 E-.09109
G1 X124.53 Y101.904 E-.10901
G1 X124.415 Y101.938 E-.0277
G1 X123.981 Y101.938 E-.10023
G1 X123.758 Y101.965 E-.05185
;WIPE_END
G1 E-.04 F2100
G1 Z.75 F720
;AFTER_LAYER_CHANGE
;0.5
G1 X123.746 Y105.906 F10800
G1 Z.5 F720
G1 E.8 F2100
;TYPE:Skirt/Brim
;WIDTH:0.42
G1 F900
G1 X119.656 Y105.893 E.09892
G1 X118.315 Y105.49 E.03387
G1 X115.732 Y104.019 E.07188
G1 X114.606 Y102.924 E.03797
G1 X114.261 Y102.123 E.0211
G1 X113.816 Y99.974 E.05308
G1 X113.793 Y98.892 E.02618
G1 X114.023 Y97.917 E.02423
G1 X114.267 Y97.299 E.01605
G1 X115.232 Y96.061 E.03797
G1 X116.591 Y95.461 E.03594
G1 X117.575 Y95.334 E.02399
G1 X132.423 Y95.305 E.35909
G1 X133.177 Y95.396 E.01837
G1 X133.613 Y95.503 E.01087
G1 X134.995 Y96.249 E.03797
G1 X135.738 Y97.299 E.03113
G1 X136.095 Y98.297 E.02562
G1 X136.23 Y99.086 E.01937
G1 X136.189 Y99.974 E.0215
G1 X135.885 Y101.569 E.03927
G1 X135.744 Y102.123 E.01383
G1 X134.963 Y103.486 E.03797
G1 X134.25 Y104.032 E.02172
G1 X131.729 Y105.44 E.06983
G1 X130.994 Y105.735 E.01916
G1 X129.861 Y105.926 E.02779
G1 X123.806 Y105.907 E.14645
G1 X123.807 Y105.53 F10800
G1 F900
G1 X119.681 Y105.517 E.09979
G1 X118.501 Y105.162 E.02979
G1 X115.919 Y103.691 E.07188
G1 X114.625 Y102.024 E.05104
G1 X114.186 Y99.903 E.05237
M73 P1 R60
G1 X114.169 Y98.928 E.02359
G1 X114.385 Y98.025 E.02246
G1 X114.613 Y97.449 E.01497
G1 X115.536 Y96.305 E.03557
G1 X116.657 Y95.832 E.02942
G1 X117.576 Y95.711 E.0224
G1 X132.423 Y95.682 E.35909
G1 X133.087 Y95.762 E.01616
G1 X133.523 Y95.869 E.01087
G1 X134.806 Y96.59 E.03557
G1 X135.509 Y97.718 E.03216
G1 X135.734 Y98.405 E.01747
G1 X135.855 Y99.122 E.0176
G1 X135.819 Y99.903 E.01891
G1 X135.515 Y101.498 E.03927
G1 X135.38 Y102.024 E.01312
G1 X134.066 Y103.702 E.05155
G1 X131.546 Y105.11 E.06983
G1 X130.899 Y105.371 E.01686
G1 X129.861 Y105.549 E.02546
G1 X123.867 Y105.53 E.14498
G1 X123.868 Y105.153 F10800
G1 F900
G1 X119.706 Y105.141 E.10066
G1 X118.688 Y104.834 E.02571
G1 X116.105 Y103.363 E.07188
G1 X114.989 Y101.924 E.04405
G1 X114.556 Y99.833 E.05166
G1 X114.544 Y98.964 E.021
G1 X114.746 Y98.132 E.0207
G1 X114.959 Y97.599 E.01389
G1 X115.837 Y96.555 E.033
G1 X116.723 Y96.204 E.02306
G1 X117.576 Y96.088 E.02082
G1 X132.424 Y96.059 E.35909
G1 X132.997 Y96.128 E.01395
G1 X133.433 Y96.236 E.01087
G1 X134.609 Y96.928 E.033
G1 X135.163 Y97.868 E.02638
G1 X135.373 Y98.513 E.0164
G1 X135.48 Y99.159 E.01584
G1 X135.449 Y99.833 E.01632
G1 X135.102 Y101.608 E.04376
G1 X135.016 Y101.924 E.00792
G1 X133.882 Y103.373 E.04449
G1 X131.362 Y104.781 E.06983
G1 X130.804 Y105.006 E.01455
G1 X129.862 Y105.172 E.02313
G1 X123.928 Y105.154 E.1435
; printing object Sizzling Lahdi-Elzing.stl id:0 copy 0
;WIPE_START
G1 F8640
G1 X120.637 Y105.144 E-.76
;WIPE_END
G1 E-.04 F2100
G1 Z.9 F720
G1 X117.774 Y99.918 F10800
G1 Z.5 F720
G1 E.8 F2100
M204 S800
;TYPE:Overhang perimeter
;WIDTH:0.45
G1 F1500
G1 X117.43 Y99.916 E.00899
G1 X117.122 Y99.341 E.017
G1 X117.132 Y99.236 E.00274
G1 X117.235 Y98.89 E.00942
G1 X117.298 Y98.744 E.00413
G1 X117.552 Y98.699 E.00672
G1 X117.739 Y98.783 E.00532
G1 X117.94 Y99.555 E.0208
G1 X117.799 Y99.863 E.00883
M204 S1000
G1 X117.654 Y99.68 F10800
;TYPE:Gap fill
;WIDTH:0.302922
G1 F900
G1 X117.53 Y99.364 E.00573
;WIDTH:0.334291
G1 X117.406 Y99.048 E.00639
;WIPE_START
G1 F8640
G1 X117.53 Y99.364 E-.07833
;WIPE_END
G1 E-.72167 F2100
G1 Z.9 F720
G1 X117.459 Y100.851 F10800
G1 Z.5 F720
G1 E.8 F2100
M204 S800
;TYPE:Overhang perimeter
;WIDTH:0.45
G1 F1500
G1 X117.632 Y100.94 E.00507
G1 X117.428 Y100.978 E.0054
G1 X117.445 Y100.909 E.00186
M204 S1000
;WIPE_START
G1 F8640
G1 X117.632 Y100.94 E-.04373
G1 X117.428 Y100.978 E-.04785
G1 X117.445 Y100.909 E-.0165
;WIPE_END
G1 E-.69193 F2100
G1 Z.9 F720
G1 X120.077 Y102.555 F10800
G1 Z.5 F720
G1 E.8 F2100
M204 S800
G1 F1500
G1 X120.075 Y102.552 E.0001
;TYPE:External perimeter
G1 F900
G1 X120.216 Y102.413 E.00513
G1 X120.773 Y102.237 E.01524
G1 X121.047 Y102.171 E.00734
G1 X122.516 Y101.98 E.03859
G1 X122.85 Y101.887 E.00904
G1 X123.025 Y101.808 E.005
G1 X123.764 Y101.739 E.01935
G1 X125.275 Y101.707 E.03937
G1 X126.811 Y101.78 E.04005
G1 X127.134 Y101.848 E.0086
G1 X127.468 Y101.977 E.00933
G1 X128.959 Y102.171 E.03917
G1 X129.231 Y102.237 E.00732
G1 X129.789 Y102.413 E.01524
G1 X129.923 Y102.546 E.00492
G1 X129.851 Y102.565 E.00195
G1 X128.293 Y102.327 E.04107
G1 X127.759 Y102.279 E.01395
G1 X127.295 Y102.162 E.01247
G1 X126.93 Y102.035 E.01008
G1 X125.971 Y101.984 E.02502
G1 X125.728 Y101.933 E.00646
G1 X125.002 Y101.913 E.01893
G1 X124.137 Y101.94 E.02256
G1 X123.987 Y101.986 E.00408
G1 X123.569 Y101.989 E.0109
G1 X123.009 Y102.029 E.01463
G1 X122.524 Y102.221 E.01359
G1 X121.475 Y102.374 E.02762
G1 X120.651 Y102.469 E.02161
G1 X120.137 Y102.56 E.0136
M204 S1000
G1 X120.078 Y102.551 F10800
;WIPE_START
G1 F8640
G1 X120.075 Y102.552 E-.01435
;WIPE_END
G1 E-.78565 F2100
G1 Z.9 F720
G1 X132.374 Y100.94 F10800
G1 Z.5 F720
G1 E.8 F2100
M204 S800
;TYPE:Overhang perimeter
G1 F1500
G1 X132.551 Y100.848 E.00521
G1 X132.577 Y100.978 E.00346
G1 X132.433 Y100.951 E.00383
M204 S1000
;WIPE_START
G1 F8640
G1 X132.551 Y100.848 E-.03626
G1 X132.577 Y100.978 E-.03068
G1 X132.433 Y100.951 E-.03391
;WIPE_END
G1 E-.69915 F2100
G1 Z.9 F720
G1 X132.428 Y99.917 F10800
G1 Z.5 F720
G1 E.8 F2100
M204 S800
G1 F1500
G1 X132.231 Y99.918 E.00515
G1 X132.065 Y99.555 E.01039
G1 X132.269 Y98.775 E.02102
G1 X132.447 Y98.681 E.00526
G1 X132.711 Y98.753 E.00711
G1 X132.873 Y99.236 E.01327
G1 X132.883 Y99.341 E.00274
G1 X132.575 Y99.916 E.017
G1 X132.488 Y99.917 E.00227
M204 S1000
G1 X132.351 Y99.68 F10800
;TYPE:Gap fill
;WIDTH:0.302921
G1 F900
G1 X132.475 Y99.364 E.00573
;WIDTH:0.334289
G1 X132.599 Y99.048 E.00639
; stop printing object Sizzling Lahdi-Elzing.stl id:0 copy 0
M106 S255
;LAYER_CHANGE
;Z:0.65
;HEIGHT:0.15
;BEFORE_LAYER_CHANGE
G92 E0.0
;0.65


;WIPE_START
G1 F8640
G1 X132.475 Y99.364 E-.07833
;WIPE_END
G1 E-.72167 F2100
G1 Z.9 F720
;AFTER_LAYER_CHANGE
;0.65
; printing object Sizzling Lahdi-Elzing.stl id:0 copy 0
G1 X132.492 Y100.277 F10800
G1 Z.65 F720
G1 E.8 F2100
M204 S800
;TYPE:Perimeter
;WIDTH:0.45
G1 F900
G1 X132.505 Y100.341 E.00171
;TYPE:Overhang perimeter
G1 F1500
G1 X132.513 Y100.389 E.00125
;TYPE:Perimeter
G1 F900
G1 X132.607 Y100.885 E.01317
G1 X132.528 Y101.157 E.00736
G1 X132.201 Y101.157 E.00852
G1 X132.022 Y100.886 E.00847
G1 X131.913 Y100.617 E.00757
;TYPE:Overhang perimeter
G1 F1500
G1 X131.842 Y100.452 E.00466
G1 X131.758 Y99.906 E.0144
;TYPE:Perimeter
G1 F900
G1 X131.673 Y99.369 E.01415
;TYPE:Overhang perimeter
G1 F1500
G1 X131.64 Y99.256 E.00308
G1 X131.64 Y98.912 E.00896
G1 X131.8 Y98.867 E.00432
;TYPE:Perimeter
G1 F900
G1 X131.9 Y98.838 E.00272
G1 X132.268 Y98.639 E.0109
G1 X132.597 Y98.614 E.0086
G1 X132.613 Y98.639 E.00078
G1 X132.709 Y98.918 E.00769
G1 X132.791 Y99.351 E.01148
G1 X132.695 Y99.696 E.00934
G1 X132.466 Y100.134 E.01289
G1 X132.481 Y100.218 E.00221
M204 S1000
G1 X132.903 Y100.199 F10800
M204 S800
;TYPE:External perimeter
G1 F900
G1 X132.904 Y100.205 E.00014
;TYPE:Overhang perimeter
G1 F1500
G1 X133.036 Y100.906 E.0186
